X: 1
T: Sk\aane valsen
O: efter Paul & Ed Johnson
R: waltz
Z: 2009 John Chambers <jc:trillian.mit.edu>
M: 3/4
L: 1/8
K: D
AF \
| "D"D2 FA FA | D2 FA FA | DF Ad fe | dc BA GF \
| "A7"E2 AE A2 | E2 AE A2 | EA ce gf | ed cB AF |
| "D"D2 FA FA | D2 FA FA | DF Ad fe | dc BA GF \
| "A7"E2 AE A2 | EA a^g a2 | ^ga ba ef | "D"d4 :|
|: Ad \
| "D"f4 g2 | f4 {gf}e2 | ed cd fd | A4 F2 \
| "G"G2 G3 d | "A7"E4 G2 | "D"F2 F3 d | D3 FAd |
| "D"f4 g2 | f4 {gf}e2 | ed cd fd | A4 F2 \
| "G"G2 eG eG | "D"F2 dF dF | "A7"E2 cE cE | "D"d4 :|
